src/svg/catalog.svg

<svg width="25" height="25" viewBox="0 0 25 25" fill="none" xmlns="http://www.w3.org/2000/svg">
<path fill-rule="evenodd" clip-rule="evenodd" d="M18.2292 2.375H18.1869H18.1869C17.451 2.37498 16.8371 2.37497 16.3426 2.43003C15.8239 2.4878 15.3459 2.61377 14.9271 2.92966C14.7233 3.08347 14.5418 3.26493 14.388 3.46881C14.0721 3.88754 13.9461 4.36557 13.8884 4.88426C13.8333 5.37875 13.8333 5.9927 13.8333 6.72857L13.8333 6.77083L13.8333 6.8131C13.8333 7.54897 13.8333 8.16292 13.8884 8.65741C13.9461 9.1761 14.0721 9.65413 14.388 10.0729C14.5418 10.2767 14.7233 10.4582 14.9271 10.612C15.3459 10.9279 15.8239 11.0539 16.3426 11.1116C16.8371 11.1667 17.451 11.1667 18.1869 11.1667H18.1869H18.1869H18.1869H18.2292H18.2714H18.2714H18.2715H18.2715C19.0073 11.1667 19.6213 11.1667 20.1157 11.1116C20.6344 11.0539 21.1125 10.9279 21.5312 10.612C21.7351 10.4582 21.9165 10.2767 22.0703 10.0729C22.3862 9.65413 22.5122 9.1761 22.57 8.65741C22.625 8.16293 22.625 7.549 22.625 6.81314V6.81309V6.77083V6.72858V6.72853C22.625 5.99267 22.625 5.37874 22.57 4.88426C22.5122 4.36557 22.3862 3.88754 22.0703 3.46881C21.9165 3.26493 21.7351 3.08347 21.5312 2.92966C21.1125 2.61377 20.6344 2.4878 20.1157 2.43003C19.6213 2.37497 19.0073 2.37498 18.2715 2.375H18.2714H18.2292ZM15.8305 4.12712C15.9465 4.03962 16.1218 3.9639 16.5086 3.92082C16.9102 3.87609 17.4401 3.875 18.2292 3.875C19.0183 3.875 19.5481 3.87609 19.9497 3.92082C20.3366 3.9639 20.5118 4.03962 20.6278 4.12712C20.7205 4.19703 20.803 4.27952 20.8729 4.37219C20.9604 4.48817 21.0361 4.66343 21.0792 5.05028C21.1239 5.45191 21.125 5.98175 21.125 6.77083C21.125 7.55992 21.1239 8.08976 21.0792 8.49139C21.0361 8.87824 20.9604 9.0535 20.8729 9.16948C20.803 9.26216 20.7205 9.34464 20.6278 9.41455C20.5118 9.50205 20.3366 9.57777 19.9497 9.62085C19.5481 9.66558 19.0183 9.66667 18.2292 9.66667C17.4401 9.66667 16.9102 9.66558 16.5086 9.62085C16.1218 9.57777 15.9465 9.50205 15.8305 9.41455C15.7379 9.34464 15.6554 9.26216 15.5855 9.16948C15.498 9.0535 15.4222 8.87824 15.3792 8.49139C15.3344 8.08976 15.3333 7.55992 15.3333 6.77083C15.3333 5.98175 15.3344 5.45191 15.3792 5.05028C15.4222 4.66343 15.498 4.48817 15.5855 4.37219C15.6554 4.27952 15.7379 4.19703 15.8305 4.12712ZM6.77084 2.375L6.72857 2.375H6.72853C5.99267 2.37498 5.37874 2.37497 4.88427 2.43003C4.36557 2.4878 3.88754 2.61377 3.46881 2.92966C3.26493 3.08347 3.08347 3.26493 2.92966 3.46881C2.61377 3.88754 2.4878 4.36557 2.43003 4.88426C2.37497 5.37875 2.37498 5.9927 2.375 6.72857L2.375 6.77084L2.375 6.8131C2.37498 7.54898 2.37497 8.16292 2.43003 8.65741C2.4878 9.1761 2.61377 9.65414 2.92966 10.0729C3.08347 10.2767 3.26493 10.4582 3.46881 10.612C3.88754 10.9279 4.36557 11.0539 4.88427 11.1116C5.37874 11.1667 5.99267 11.1667 6.72852 11.1667H6.72854H6.72856H6.72858H6.77084H6.8131H6.81311H6.81313H6.81315C7.54901 11.1667 8.16293 11.1667 8.65741 11.1116C9.1761 11.0539 9.65414 10.9279 10.0729 10.612C10.2767 10.4582 10.4582 10.2767 10.612 10.0729C10.9279 9.65414 11.0539 9.1761 11.1116 8.65741C11.1667 8.16294 11.1667 7.54903 11.1667 6.81319V6.81317V6.81315V6.81313V6.77084V6.72854V6.72852V6.7285V6.72849C11.1667 5.99265 11.1667 5.37873 11.1116 4.88426C11.0539 4.36557 10.9279 3.88754 10.612 3.46881C10.4582 3.26493 10.2767 3.08347 10.0729 2.92966C9.65414 2.61377 9.1761 2.4878 8.65741 2.43003C8.16293 2.37497 7.549 2.37498 6.81315 2.375H6.8131L6.77084 2.375ZM4.37219 4.12712C4.48817 4.03962 4.66343 3.9639 5.05029 3.92082C5.45191 3.87609 5.98175 3.875 6.77084 3.875C7.55993 3.875 8.08976 3.87609 8.49139 3.92082C8.87824 3.9639 9.0535 4.03962 9.16948 4.12712C9.26216 4.19703 9.34464 4.27952 9.41455 4.37219C9.50205 4.48817 9.57777 4.66343 9.62085 5.05029C9.66558 5.45191 9.66667 5.98175 9.66667 6.77084C9.66667 7.55993 9.66558 8.08976 9.62085 8.49139C9.57777 8.87824 9.50205 9.0535 9.41455 9.16948C9.34464 9.26216 9.26216 9.34464 9.16948 9.41455C9.0535 9.50205 8.87824 9.57777 8.49139 9.62085C8.08976 9.66558 7.55993 9.66667 6.77084 9.66667C5.98175 9.66667 5.45191 9.66558 5.05029 9.62085C4.66343 9.57777 4.48817 9.50205 4.37219 9.41455C4.27952 9.34464 4.19703 9.26216 4.12712 9.16948C4.03962 9.0535 3.9639 8.87824 3.92082 8.49139C3.87609 8.08976 3.875 7.55993 3.875 6.77084C3.875 5.98175 3.87609 5.45191 3.92082 5.05029C3.9639 4.66343 4.03962 4.48817 4.12712 4.37219C4.19703 4.27952 4.27952 4.19703 4.37219 4.12712ZM6.72857 13.8333L6.77084 13.8333L6.8131 13.8333C7.54897 13.8333 8.16292 13.8333 8.65741 13.8884C9.1761 13.9461 9.65413 14.0721 10.0729 14.388C10.2767 14.5418 10.4582 14.7233 10.612 14.9271C10.9279 15.3459 11.0539 15.8239 11.1116 16.3426C11.1667 16.8371 11.1667 17.451 11.1667 18.1869V18.1869V18.1869V18.2292V18.2714V18.2714V18.2715C11.1667 19.0073 11.1667 19.6213 11.1116 20.1157C11.0539 20.6344 10.9279 21.1125 10.612 21.5312C10.4582 21.7351 10.2767 21.9165 10.0729 22.0703C9.65413 22.3862 9.1761 22.5122 8.65741 22.57C8.16293 22.625 7.549 22.625 6.81314 22.625H6.81309H6.77084H6.72858H6.72853C5.99267 22.625 5.37874 22.625 4.88426 22.57C4.36557 22.5122 3.88754 22.3862 3.46881 22.0703C3.26493 21.9165 3.08347 21.7351 2.92966 21.5312C2.61377 21.1125 2.4878 20.6344 2.43003 20.1157C2.37497 19.6213 2.37498 19.0073 2.375 18.2715V18.2714L2.375 18.2292L2.375 18.1869V18.1869C2.37498 17.451 2.37497 16.8371 2.43003 16.3426C2.4878 15.8239 2.61377 15.3459 2.92966 14.9271C3.08347 14.7233 3.26493 14.5418 3.46881 14.388C3.88754 14.0721 4.36557 13.9461 4.88426 13.8884C5.37875 13.8333 5.9927 13.8333 6.72857 13.8333ZM5.05029 15.3792C4.66343 15.4222 4.48817 15.498 4.37219 15.5855C4.27952 15.6554 4.19703 15.7378 4.12712 15.8305C4.03962 15.9465 3.9639 16.1218 3.92082 16.5086C3.87609 16.9102 3.875 17.4401 3.875 18.2292C3.875 19.0183 3.87609 19.5481 3.92082 19.9497C3.9639 20.3366 4.03962 20.5118 4.12712 20.6278C4.19703 20.7205 4.27952 20.803 4.37219 20.8729C4.48817 20.9604 4.66343 21.0361 5.05029 21.0792C5.45191 21.1239 5.98175 21.125 6.77084 21.125C7.55992 21.125 8.08976 21.1239 8.49139 21.0792C8.87824 21.0361 9.0535 20.9604 9.16948 20.8729C9.26216 20.803 9.34464 20.7205 9.41455 20.6278C9.50205 20.5118 9.57777 20.3366 9.62085 19.9497C9.66558 19.5481 9.66667 19.0183 9.66667 18.2292C9.66667 17.4401 9.66558 16.9102 9.62085 16.5086C9.57777 16.1218 9.50205 15.9465 9.41455 15.8305C9.34464 15.7378 9.26216 15.6554 9.16948 15.5855C9.0535 15.498 8.87824 15.4222 8.49139 15.3792C8.08976 15.3344 7.55992 15.3333 6.77084 15.3333C5.98175 15.3333 5.45191 15.3344 5.05029 15.3792ZM18.2292 13.8333L18.1869 13.8333C17.451 13.8333 16.8371 13.8333 16.3426 13.8884C15.8239 13.9461 15.3459 14.0721 14.9271 14.388C14.7233 14.5418 14.5418 14.7233 14.388 14.9271C14.0721 15.3459 13.9461 15.8239 13.8884 16.3426C13.8333 16.8371 13.8333 17.451 13.8333 18.1869L13.8333 18.2292L13.8333 18.2714C13.8333 19.0073 13.8333 19.6213 13.8884 20.1157C13.9461 20.6344 14.0721 21.1125 14.388 21.5312C14.5418 21.7351 14.7233 21.9165 14.9271 22.0703C15.3459 22.3862 15.8239 22.5122 16.3426 22.57C16.8371 22.625 17.451 22.625 18.1869 22.625H18.1869H18.2292H18.2714H18.2715C19.0073 22.625 19.6213 22.625 20.1157 22.57C20.6344 22.5122 21.1125 22.3862 21.5312 22.0703C21.7351 21.9165 21.9165 21.7351 22.0703 21.5312C22.3862 21.1125 22.5122 20.6344 22.57 20.1157C22.625 19.6213 22.625 19.0073 22.625 18.2714V18.2292V18.1869C22.625 17.451 22.625 16.8371 22.57 16.3426C22.5122 15.8239 22.3862 15.3459 22.0703 14.9271C21.9165 14.7233 21.7351 14.5418 21.5312 14.388C21.1125 14.0721 20.6344 13.9461 20.1157 13.8884C19.6213 13.8333 19.0073 13.8333 18.2714 13.8333L18.2292 13.8333ZM15.8305 15.5855C15.9465 15.498 16.1218 15.4222 16.5086 15.3792C16.9102 15.3344 17.4401 15.3333 18.2292 15.3333C19.0183 15.3333 19.5481 15.3344 19.9497 15.3792C20.3366 15.4222 20.5118 15.498 20.6278 15.5855C20.7205 15.6554 20.803 15.7379 20.8729 15.8305C20.9604 15.9465 21.0361 16.1218 21.0792 16.5086C21.1239 16.9102 21.125 17.4401 21.125 18.2292C21.125 19.0183 21.1239 19.5481 21.0792 19.9497C21.0361 20.3366 20.9604 20.5118 20.8729 20.6278C20.803 20.7205 20.7205 20.803 20.6278 20.8729C20.5118 20.9604 20.3366 21.0361 19.9497 21.0792C19.5481 21.1239 19.0183 21.125 18.2292 21.125C17.4401 21.125 16.9102 21.1239 16.5086 21.0792C16.1218 21.0361 15.9465 20.9604 15.8305 20.8729C15.7379 20.803 15.6554 20.7205 15.5855 20.6278C15.498 20.5118 15.4222 20.3366 15.3792 19.9497C15.3344 19.5481 15.3333 19.0183 15.3333 18.2292C15.3333 17.4401 15.3344 16.9102 15.3792 16.5086C15.4222 16.1218 15.498 15.9465 15.5855 15.8305C15.6554 15.7379 15.7379 15.6554 15.8305 15.5855Z" fill="#101F33"/>
</svg>

<svg xmlns="http://www.w3.org/2000/svg" width="25" height="25" fill="none"><path fill-rule="evenodd" d="M18.229 2.375h-.042 0c-.736 0-1.35 0-1.844.055-.519.058-.997.184-1.416.5a2.75 2.75 0 0 0-.539.539c-.316.419-.442.897-.5 1.415-.055.494-.055 1.108-.055 1.844v.042.042l.055 1.844c.058.519.184.997.5 1.415.154.204.335.385.539.539.419.316.897.442 1.416.5.494.055 1.108.055 1.844.055h0 0 0 .042.042 0 0 0l1.844-.055c.519-.058.997-.184 1.415-.5a2.75 2.75 0 0 0 .539-.539c.316-.419.442-.897.5-1.415.055-.494.055-1.108.055-1.844h0v-.042-.042h0l-.055-1.844c-.058-.519-.184-.997-.5-1.415a2.75 2.75 0 0 0-.539-.539c-.419-.316-.897-.442-1.415-.5-.494-.055-1.108-.055-1.844-.055h0-.042zm-2.399 1.752c.116-.087.291-.163.678-.206.402-.045.931-.046 1.721-.046l1.721.046c.387.043.562.119.678.206a1.25 1.25 0 0 1 .245.245c.087.116.163.291.206.678.045.402.046.931.046 1.721l-.046 1.721c-.043.387-.119.562-.206.678a1.25 1.25 0 0 1-.245.245c-.116.088-.291.163-.678.206-.402.045-.931.046-1.721.046s-1.319-.001-1.721-.046c-.387-.043-.562-.119-.678-.206a1.25 1.25 0 0 1-.245-.245c-.088-.116-.163-.291-.206-.678-.045-.402-.046-.931-.046-1.721l.046-1.721c.043-.387.119-.562.206-.678a1.25 1.25 0 0 1 .245-.245zm-9.06-1.752h-.042 0c-.736 0-1.35 0-1.844.055-.519.058-.997.184-1.415.5a2.75 2.75 0 0 0-.539.539c-.316.419-.442.897-.5 1.415-.055.494-.055 1.108-.055 1.844v.042.042l.055 1.844c.058.519.184.997.5 1.415a2.75 2.75 0 0 0 .539.539c.419.316.897.442 1.415.5.494.055 1.108.055 1.844.055h0 0 0 .042.042 0 0 0l1.844-.055c.519-.058.997-.184 1.415-.5.204-.154.385-.335.539-.539.316-.419.442-.897.5-1.415.055-.494.055-1.108.055-1.844h0 0 0v-.042-.042h0 0 0l-.055-1.844c-.058-.519-.184-.997-.5-1.415a2.75 2.75 0 0 0-.539-.539c-.419-.316-.897-.442-1.415-.5-.494-.055-1.108-.055-1.844-.055h0-.042zM4.372 4.127c.116-.087.291-.163.678-.206.402-.045.931-.046 1.721-.046l1.721.046c.387.043.562.119.678.206a1.25 1.25 0 0 1 .245.245c.088.116.163.291.206.678.045.402.046.931.046 1.721l-.046 1.721c-.043.387-.119.562-.206.678a1.25 1.25 0 0 1-.245.245c-.116.088-.291.163-.678.206-.402.045-.931.046-1.721.046s-1.319-.001-1.721-.046c-.387-.043-.562-.119-.678-.206a1.25 1.25 0 0 1-.245-.245c-.087-.116-.163-.291-.206-.678-.045-.402-.046-.931-.046-1.721l.046-1.721c.043-.387.119-.562.206-.678a1.25 1.25 0 0 1 .245-.245zm2.356 9.706h.042.042l1.844.055c.519.058.997.184 1.415.5.204.154.385.335.539.539.316.419.442.897.5 1.416.055.494.055 1.108.055 1.844h0 0v.042.042h0 0l-.055 1.844c-.058.519-.184.997-.5 1.415a2.75 2.75 0 0 1-.539.539c-.419.316-.897.442-1.415.5-.494.055-1.108.055-1.844.055h0-.042-.042 0c-.736 0-1.35 0-1.844-.055-.519-.058-.997-.184-1.415-.5a2.75 2.75 0 0 1-.539-.539c-.316-.419-.442-.897-.5-1.415-.055-.494-.055-1.108-.055-1.844h0v-.042-.042h0l.055-1.844c.058-.519.184-.997.5-1.416a2.75 2.75 0 0 1 .539-.539c.419-.316.897-.442 1.415-.5.494-.055 1.108-.055 1.844-.055zM5.05 15.379c-.387.043-.562.119-.678.206a1.25 1.25 0 0 0-.245.245c-.087.116-.163.291-.206.678-.045.402-.046.931-.046 1.721l.046 1.721c.043.387.119.562.206.678a1.25 1.25 0 0 0 .245.245c.116.087.291.163.678.206.402.045.931.046 1.721.046l1.721-.046c.387-.043.562-.119.678-.206a1.25 1.25 0 0 0 .245-.245c.088-.116.163-.291.206-.678.045-.402.046-.931.046-1.721l-.046-1.721c-.043-.387-.119-.562-.206-.678a1.25 1.25 0 0 0-.245-.245c-.116-.088-.291-.163-.678-.206-.402-.045-.931-.046-1.721-.046l-1.721.046zm13.179-1.546h-.042l-1.844.055c-.519.058-.997.184-1.416.5-.204.154-.385.335-.539.539-.316.419-.442.897-.5 1.416-.055.494-.055 1.108-.055 1.844v.042.042l.055 1.844c.058.519.184.997.5 1.415a2.75 2.75 0 0 0 .539.539c.419.316.897.442 1.416.5.494.055 1.108.055 1.844.055h0 .042.042 0l1.844-.055c.519-.058.997-.184 1.415-.5a2.75 2.75 0 0 0 .539-.539c.316-.419.442-.897.5-1.415.055-.494.055-1.108.055-1.844v-.042-.042l-.055-1.844c-.058-.519-.184-.997-.5-1.416a2.75 2.75 0 0 0-.539-.539c-.419-.316-.897-.442-1.415-.5-.494-.055-1.108-.055-1.844-.055h-.042zm-2.399 1.752c.116-.088.291-.163.678-.206.402-.045.931-.046 1.721-.046l1.721.046c.387.043.562.119.678.206a1.25 1.25 0 0 1 .245.245c.087.116.163.291.206.678.045.402.046.931.046 1.721l-.046 1.721c-.043.387-.119.562-.206.678a1.25 1.25 0 0 1-.245.245c-.116.087-.291.163-.678.206-.402.045-.931.046-1.721.046s-1.319-.001-1.721-.046c-.387-.043-.562-.119-.678-.206a1.25 1.25 0 0 1-.245-.245c-.088-.116-.163-.291-.206-.678-.045-.402-.046-.931-.046-1.721l.046-1.721c.043-.387.119-.562.206-.678.07-.093.152-.175.245-.245z" fill="#101f33"/></svg>
